X:1
T:The Beggar Man
M:4/4
L:1/4
K:F
 z2 zF/2-D/2| CC/2-D/2 FF/2-G/2| BA/2-G/2 A G| F/2F/2 F D F/2F/2| G G C C|\
 F F A c| d c A A/2G/2| F F A/2 c3/2| G4| A/2G/2 F/2D/2 D C| C3 z|\
